X:1
T:Title
%%score { ( 1 2 ) | ( 3 4 ) }
L:1/8
Q:1/4=100
M:4/4
K:D
V:1 treble nm="Grand Piano"
V:2 treble 
V:3 bass 
V:4 bass 
V:1
 [Fd]2 [Gc]>[CGB] [DFA]2 [GB]>A | [DFA]4 [A,DF]2 z2 | [CE]2 [DF]>[CG] [CB]2 [DA]2 | [EA]4 F2 z2 | %4
w: Thomas~Gardiner * * * * *||||
 [Fd]2 [Gc]>[CGB] [DFA]2 [GB]>A | [DFA]4 F2 z2 | E2 F>G F2 [CE]2 | D6 z2 | E2 F>G B2 A2 | %9
w: |||||
 [EA]4 [DF]2 [DF]2 | [CE]2 [DF]2 [CG]2 [CA]2 | [DF]4 z4 | [Fd]2 [Gc]>[GB] [FA]2 [=FB]>[^FA] | %13
w: ||||
 [DFA]4 [A,DF]2 [A,DF]2 | [B,E]2 [A,^DF]2 [G,EG]2[K:bass] [G,CE]2 |[M:8/4] [F,D]8 z8 | %16
w: |||
[M:4/4][K:treble] [B,DG]8 | [A,DF]8 |] %18
w: ||
V:2
 z4 z2 D2 | x8 | x8 | x8 | z4 z2 D2 | x8 | x8 | x8 | x8 | x8 | x8 | x8 | x8 | x8 | x6[K:bass] x2 | %15
[M:8/4] x16 |[M:4/4][K:treble] x8 | x8 |] %18
V:3
 [D,A,]2 [D,B,]>D, D,2 z z/ F/ | D,4 D,2 z2 | [A,,A,]2 [A,,A,]>[A,,A,] [A,,G,]2 [D,F,]2 | %3
 A,4- [D,A,D]2 z2 | [D,A,]2 [D,B,]>D, D,2 z z/ F/ | D,4 [D,A,D]2 z2 | %6
 [G,B,]2 [F,B,^D]>[E,B,E] [A,=D]2 [A,,G,]2 | [D,F,]6 z2 | %8
 [A,C]2 [D,A,D]>[E,A,C] [G,A,C]2 [F,A,D]2 | [C,A,]4 [D,A,]2 [D,A,]2 | %10
 [A,,A,]2 [A,,A,]2 [A,,A,]2 [A,,A,]2 | [D,A,]4 z4 | [D,A,]2 [D,B,]>[D,C] [D,D]2 ^G,>A, | %13
 D,4 D,2 D,2 | G,2 F,2 E,2 A,,2 |[M:8/4] D,8 z8 |[M:4/4] G,,8 | D,8 |] %18
V:4
 z4 z2 G,,2 | x8 | x8 | C,4 z4 | z4 z2 G,,2 | x8 | x8 | x8 | x8 | x8 | x8 | x8 | z4 z2 D,2 | x8 | %14
 x8 |[M:8/4] x16 |[M:4/4] x8 | x8 |] %18

